svg/color/bas.svg

<?xml version="1.0" encoding="UTF-8" ?>
<!DOCTYPE svg PUBLIC "-//W3C//DTD SVG 1.1//EN" "http://www.w3.org/Graphics/SVG/1.1/DTD/svg11.dtd">
<svg width="250pt" height="250pt" viewBox="0 0 250 250" version="1.1" xmlns="http://www.w3.org/2000/svg">
<g id="#ffffffff">
<path fill="#ffffff" opacity="1.00" d=" M 0.00 0.00 L 250.00 0.00 L 250.00 250.00 L 0.00 250.00 L 0.00 0.00 M 116.25 20.16 C 85.48 22.41 56.28 39.35 38.76 64.69 C 24.10 85.48 17.38 111.76 20.46 137.04 C 22.79 158.59 32.22 179.23 46.70 195.33 C 63.67 214.30 87.76 226.85 113.10 229.55 C 137.38 232.47 162.60 226.38 182.97 212.85 C 204.10 198.99 219.89 177.23 226.51 152.84 C 231.34 135.33 231.50 116.61 227.01 99.02 C 220.92 74.80 205.81 52.97 185.29 38.74 C 165.40 24.75 140.48 17.92 116.25 20.16 Z" />
<path fill="#ffffff" opacity="1.00" d=" M 82.14 41.87 C 99.20 33.01 119.05 29.64 138.07 32.40 C 158.23 35.15 177.38 44.81 191.58 59.38 C 209.24 77.01 219.17 102.05 218.49 126.99 C 218.17 155.96 203.15 184.00 179.74 200.91 C 177.28 179.81 167.36 159.67 151.94 145.04 C 133.59 127.23 107.61 118.19 82.18 119.69 C 82.16 93.75 82.22 67.81 82.14 41.87 Z" />
<path fill="#ffffff" opacity="1.00" d=" M 41.02 83.85 C 47.69 70.04 58.01 58.13 70.33 49.06 C 70.42 99.68 70.43 150.31 70.32 200.94 C 53.81 188.88 41.17 171.50 35.40 151.84 C 28.65 129.54 30.66 104.72 41.02 83.85 Z" />
<path fill="#ffffff" opacity="1.00" d=" M 82.20 131.45 C 100.01 130.41 118.22 134.79 133.04 144.86 C 153.92 158.73 167.69 182.84 168.42 207.96 C 141.89 221.83 108.81 222.07 82.23 208.22 C 82.12 182.63 82.18 157.04 82.20 131.45 Z" />
</g>
<g id="#ffb802ff">
<path fill="#ffb802" opacity="1.00" d=" M 116.25 20.16 C 140.48 17.92 165.40 24.75 185.29 38.74 C 205.81 52.97 220.92 74.80 227.01 99.02 C 231.50 116.61 231.34 135.33 226.51 152.84 C 219.89 177.23 204.10 198.99 182.97 212.85 C 162.60 226.38 137.38 232.47 113.10 229.55 C 87.76 226.85 63.67 214.30 46.70 195.33 C 32.22 179.23 22.79 158.59 20.46 137.04 C 17.38 111.76 24.10 85.48 38.76 64.69 C 56.28 39.35 85.48 22.41 116.25 20.16 M 82.14 41.87 C 82.22 67.81 82.16 93.75 82.18 119.69 C 107.61 118.19 133.59 127.23 151.94 145.04 C 167.36 159.67 177.28 179.81 179.74 200.91 C 203.15 184.00 218.17 155.96 218.49 126.99 C 219.17 102.05 209.24 77.01 191.58 59.38 C 177.38 44.81 158.23 35.15 138.07 32.40 C 119.05 29.64 99.20 33.01 82.14 41.87 M 41.02 83.85 C 30.66 104.72 28.65 129.54 35.40 151.84 C 41.17 171.50 53.81 188.88 70.32 200.94 C 70.43 150.31 70.42 99.68 70.33 49.06 C 58.01 58.13 47.69 70.04 41.02 83.85 M 82.20 131.45 C 82.18 157.04 82.12 182.63 82.23 208.22 C 108.81 222.07 141.89 221.83 168.42 207.96 C 167.69 182.84 153.92 158.73 133.04 144.86 C 118.22 134.79 100.01 130.41 82.20 131.45 Z" />
</g>
</svg>

<?xml version="1.0" encoding="utf-8"?>
<!-- Generator: Adobe Illustrator 26.0.3, SVG Export Plug-In . SVG Version: 6.00 Build 0)  -->
<svg version="1.1" id="Layer_1" xmlns="http://www.w3.org/2000/svg" xmlns:xlink="http://www.w3.org/1999/xlink" x="0px" y="0px"
	 viewBox="0 0 250 250" style="enable-background:new 0 0 250 250;" xml:space="preserve">
<style type="text/css">
	.st0{fill:#FFFFFF;}
	.st1{fill:#FFB802;}
</style>
<g id="_x23_ffffffff">
	<path class="st0" d="M82.1,41.9c17.1-8.9,36.9-12.2,55.9-9.5c20.2,2.8,39.3,12.4,53.5,27c17.7,17.6,27.6,42.7,26.9,67.6
		c-0.3,29-15.3,57-38.8,73.9c-2.5-21.1-12.4-41.2-27.8-55.9c-18.4-17.8-44.3-26.8-69.8-25.3C82.2,93.8,82.2,67.8,82.1,41.9z"/>
	<path class="st0" d="M41,83.8C47.7,70,58,58.1,70.3,49.1c0.1,50.6,0.1,101.2,0,151.9c-16.5-12.1-29.2-29.4-34.9-49.1
		C28.6,129.5,30.7,104.7,41,83.8z"/>
	<path class="st0" d="M82.2,131.4c17.8-1,36,3.3,50.8,13.4c20.9,13.9,34.7,38,35.4,63.1c-26.5,13.9-59.6,14.1-86.2,0.3
		C82.1,182.6,82.2,157,82.2,131.4z"/>
</g>
<g id="_x23_ffb802ff">
	<path class="st1" d="M116.2,20.2c24.2-2.2,49.1,4.6,69,18.6C205.8,53,220.9,74.8,227,99c4.5,17.6,4.3,36.3-0.5,53.8
		c-6.6,24.4-22.4,46.2-43.5,60c-20.4,13.5-45.6,19.6-69.9,16.7c-25.3-2.7-49.4-15.2-66.4-34.2c-14.5-16.1-23.9-36.7-26.2-58.3
		c-3.1-25.3,3.6-51.6,18.3-72.3C56.3,39.3,85.5,22.4,116.2,20.2 M82.1,41.9c0.1,25.9,0,51.9,0,77.8c25.4-1.5,51.4,7.5,69.8,25.3
		c15.4,14.6,25.3,34.8,27.8,55.9c23.4-16.9,38.4-44.9,38.8-73.9c0.7-24.9-9.2-50-26.9-67.6c-14.2-14.6-33.4-24.2-53.5-27
		C119.1,29.6,99.2,33,82.1,41.9 M41,83.8c-10.4,20.9-12.4,45.7-5.6,68c5.8,19.7,18.4,37,34.9,49.1c0.1-50.6,0.1-101.3,0-151.9
		C58,58.1,47.7,70,41,83.8 M82.2,131.4c0,25.6-0.1,51.2,0,76.8c26.6,13.9,59.7,13.6,86.2-0.3c-0.7-25.1-14.5-49.2-35.4-63.1
		C118.2,134.8,100,130.4,82.2,131.4z"/>
</g>
</svg>
